pro/src/icons/stroke-article.svg

<svg width="48" height="48" viewBox="0 0 48 48" xmlns="http://www.w3.org/2000/svg">
<path id="icon" d="M 8 6 C 8 4.8923 8.8923 4 10 4 H 38 C 39.1078 4 40 4.8923 40 6 V 29.09 C 40 29.6422 40.4478 30.09 41 30.09 C 41.5522 30.09 42 29.6422 42 29.09 V 6 C 42 3.7877 40.2122 2 38 2 H 10 C 7.7877 2 6 3.7877 6 6 V 42 C 6 44.2122 7.7877 46 10 46 H 38 C 40.2122 46 42 44.2122 42 42 V 37.96 C 42 37.4078 41.5522 36.96 41 36.96 C 40.4478 36.96 40 37.4078 40 37.96 V 42 C 40 43.1078 39.1078 44 38 44 H 10 C 8.8923 44 8 43.1078 8 42 V 6 Z M 14 11 C 13.4477 11 13 11.4477 13 12 C 13 12.5523 13.4477 13 14 13 H 34 C 34.5522 13 35 12.5523 35 12 C 35 11.4477 34.5522 11 34 11 H 14 Z M 13 20 C 13 19.4477 13.4477 19 14 19 H 34 C 34.5522 19 35 19.4477 35 20 C 35 20.5522 34.5522 21 34 21 H 14 C 13.4477 21 13 20.5522 13 20 Z M 14 27 C 13.4477 27 13 27.4478 13 28 C 13 28.5522 13.4477 29 14 29 H 28 C 28.5522 29 29 28.5522 29 28 C 29 27.4478 28.5522 27 28 27 H 14 Z" fill="currentColor"/>
</svg>

<svg xmlns="http://www.w3.org/2000/svg" width="48" height="48"><path id="icon" fill="currentColor" d="M8 6c0-1.108.892-2 2-2h28c1.108 0 2 .892 2 2v23.09a1 1 0 0 0 2 0V6c0-2.212-1.788-4-4-4H10C7.788 2 6 3.788 6 6v36c0 2.212 1.788 4 4 4h28c2.212 0 4-1.788 4-4v-4.04a1 1 0 0 0-2 0V42c0 1.108-.892 2-2 2H10c-1.108 0-2-.892-2-2zm6 5a1 1 0 1 0 0 2h20a1 1 0 0 0 0-2zm-1 9a1 1 0 0 1 1-1h20a1 1 0 0 1 0 2H14a1 1 0 0 1-1-1m1 7a1 1 0 0 0 0 2h14a1 1 0 0 0 0-2z"/></svg>
